assets/azuremanagedapplicationscenter/original.svg

<svg height="18" viewBox="0 0 18 18" width="18" xmlns="http://www.w3.org/2000/svg" xmlns:xlink="http://www.w3.org/1999/xlink"><linearGradient id="a" gradientUnits="userSpaceOnUse" x1="13.31" x2="6.51" y1=".23" y2="15"><stop offset="0" stop-color="#552f99"/><stop offset=".07" stop-color="#643daa"/><stop offset=".2" stop-color="#7c53c5"/><stop offset=".35" stop-color="#8f64da"/><stop offset=".51" stop-color="#9c71e9"/><stop offset=".7" stop-color="#a478f1"/><stop offset="1" stop-color="#a67af4"/></linearGradient><path d="m9.42 11.66 2.4-1.33a.07.07 0 0 0 0-.06v-2.67a.07.07 0 0 0 0-.06h-.07l-2.37 1.33a.05.05 0 0 0 0 .05v2.67a.07.07 0 0 0 0 .06m0 3.34 2.4-1.33a.07.07 0 0 0 0-.06v-2.66a.07.07 0 0 0 0-.06.1.1 0 0 0 -.07 0l-2.4 1.33v2.67a.07.07 0 0 0 0 .06m3.1-5 2.59-1.29a.06.06 0 0 0 0-.06v-2.66a.06.06 0 0 0 0-.06h-.08l-2.43 1.33v2.72a.06.06 0 0 0 0 .06m0 3.34 2.51-1.32a.06.06 0 0 0 0-.06v-2.67a.06.06 0 0 0 0-.06.1.1 0 0 0 -.08 0l-2.39 1.33a.05.05 0 0 0 0 .05v2.67a.06.06 0 0 0 0 .06" fill="#198ab3"/><path d="m8.57 11.66-2.43-1.34a.05.05 0 0 1 0-.06v-2.66a.06.06 0 0 1 0-.06h.07l2.4 1.33a.06.06 0 0 1 0 .06v2.66a.07.07 0 0 1 0 .06m-.04 3.35-2.43-1.34a.05.05 0 0 1 0-.06v-2.66a.05.05 0 0 1 0-.06.1.1 0 0 1 .07 0l2.4 1.33a.06.06 0 0 1 0 .06v2.66a.07.07 0 0 1 0 .06m-3.15-4.99-2.46-1.35a.07.07 0 0 1 0-.06v-2.66a.08.08 0 0 1 0-.06h.08l2.42 1.33a.07.07 0 0 1 0 .06v2.66a.08.08 0 0 1 0 .06m-.04 3.35-2.46-1.33a.07.07 0 0 1 0-.06v-2.67a.07.07 0 0 1 0-.06.1.1 0 0 1 .08 0l2.42 1.33a.07.07 0 0 1 0 .06v2.66a.08.08 0 0 1 0 .06" fill="#32bedd"/><path d="m6.44 6.81 2.56-1.37a.08.08 0 0 1 .08 0l2.45 1.34a.06.06 0 0 1 0 .06.07.07 0 0 1 0 .06l-2.53 1.34h-.07l-2.46-1.33a.1.1 0 0 1 0-.07m-3.26-1.79 2.48-1.38h.07l2.43 1.33a.06.06 0 0 1 0 .06.07.07 0 0 1 0 .06l-2.45 1.36h-.08l-2.43-1.34a.06.06 0 0 1 0-.06m6.52 0 2.48-1.38a.1.1 0 0 1 .07 0l2.43 1.3a.08.08 0 0 1 0 .06.07.07 0 0 1 0 .06l-2.45 1.39h-.08l-2.43-1.34a.06.06 0 0 1 0-.06m-3.32-1.77 2.55-1.34 2.5 1.3a.07.07 0 0 1 0 .06.05.05 0 0 1 0 .06l-2.5 1.33h-.06l-2.46-1.32a.07.07 0 0 1 0-.05" fill="#50e6ff"/><path d="m17.57 4.48c-.66-1.09-2.2-1.52-4.35-1.2h-.26l1.91 1a2.07 2.07 0 0 1 1.73.75c.4.67.06 1.81-.93 3.14a17.5 17.5 0 0 1 -5 4.23 17.3 17.3 0 0 1 -6.06 2.4c-1.64.25-2.81 0-3.21-.66s-.09-1.69.77-2.92v-1.83c-.27.31-.5.61-.75.94-1.29 1.73-1.65 3.29-1 4.39a3.33 3.33 0 0 0 3 1.3 9 9 0 0 0 1.31-.1 18.7 18.7 0 0 0 6.5-2.52 18.6 18.6 0 0 0 5.3-4.53c1.34-1.73 1.7-3.29 1.04-4.39" fill="url(#a)"/></svg>

<svg xmlns="http://www.w3.org/2000/svg" id="ae4df50d-5710-4260-8ee6-bad0cb48dead" width="18" height="18" viewBox="0 0 18 18"><defs><linearGradient id="b1a613f6-50f9-42fe-ac44-c79cd2718830" x1="13.31" x2="6.51" y1=".23" y2="15" gradientUnits="userSpaceOnUse"><stop offset="0" stop-color="#552f99"/><stop offset=".07" stop-color="#643daa"/><stop offset=".2" stop-color="#7c53c5"/><stop offset=".35" stop-color="#8f64da"/><stop offset=".51" stop-color="#9c71e9"/><stop offset=".7" stop-color="#a478f1"/><stop offset="1" stop-color="#a67af4"/></linearGradient></defs><title>Icon-manage-313</title><path fill="#198ab3" d="m9.42 11.66 2.4-1.33a.07.07 0 0 0 0-.06V7.6a.07.07 0 0 0 0-.06h-.07L9.38 8.87a.05.05 0 0 0 0 .05v2.67a.07.07 0 0 0 0 .06m0 3.34 2.4-1.33a.07.07 0 0 0 0-.06v-2.66a.07.07 0 0 0 0-.06.1.1 0 0 0-.07 0l-2.4 1.33v2.67a.07.07 0 0 0 0 .06m3.1-5L15 8.65a.06.06 0 0 0 0-.06V5.93a.06.06 0 0 0 0-.06h-.08L12.49 7.2v2.72a.06.06 0 0 0 0 .06m0 3.34L15 12a.06.06 0 0 0 0-.06V9.27a.06.06 0 0 0 0-.06.1.1 0 0 0-.08 0l-2.39 1.33a.05.05 0 0 0 0 .05v2.67a.06.06 0 0 0 0 .06"/><path fill="#32bedd" d="m8.57 11.66-2.43-1.34a.05.05 0 0 1 0-.06V7.6a.06.06 0 0 1 0-.06h.07l2.4 1.33a.06.06 0 0 1 0 .06v2.66a.07.07 0 0 1 0 .06M8.57 15l-2.43-1.34a.05.05 0 0 1 0-.06v-2.66a.05.05 0 0 1 0-.06.1.1 0 0 1 .07 0l2.4 1.33a.06.06 0 0 1 0 .06v2.66a.07.07 0 0 1 0 .06M5.46 10 3 8.65a.07.07 0 0 1 0-.06V5.93a.08.08 0 0 1 0-.06h.08L5.5 7.2a.07.07 0 0 1 0 .06v2.66a.08.08 0 0 1 0 .06M5.46 13.33 3 12a.07.07 0 0 1 0-.06V9.27a.07.07 0 0 1 0-.06.1.1 0 0 1 .08 0l2.42 1.33a.07.07 0 0 1 0 .06v2.66a.08.08 0 0 1 0 .06"/><path fill="#50e6ff" d="M6.44 6.81 9 5.44a.08.08 0 0 1 .08 0l2.45 1.34a.06.06 0 0 1 0 .06.07.07 0 0 1 0 .06L9 8.24h-.07L6.47 6.91a.1.1 0 0 1 0-.07M3.21 5.05l2.48-1.38h.07L8.19 5a.06.06 0 0 1 0 .06.07.07 0 0 1 0 .06L5.74 6.48h-.08L3.23 5.14a.06.06 0 0 1 0-.06M9.75 5.08l2.48-1.38a.1.1 0 0 1 .07 0L14.73 5a.08.08 0 0 1 0 .06.07.07 0 0 1 0 .06l-2.45 1.39h-.08L9.77 5.17a.06.06 0 0 1 0-.06M6.45 3.34 9 2l2.5 1.3a.07.07 0 0 1 0 .06.05.05 0 0 1 0 .06L9 4.75h-.06L6.48 3.43a.07.07 0 0 1 0-.05"/><path fill="url(#b1a613f6-50f9-42fe-ac44-c79cd2718830)" d="M17.57 4.48c-.66-1.09-2.2-1.52-4.35-1.2h-.26l1.91 1a2.07 2.07 0 0 1 1.73.75c.4.67.06 1.81-.93 3.14a17.5 17.5 0 0 1-5 4.23 17.3 17.3 0 0 1-6.06 2.4c-1.64.25-2.81 0-3.21-.66s-.09-1.69.77-2.92V9.39c-.27.31-.5.61-.75.94-1.29 1.73-1.65 3.29-1 4.39a3.33 3.33 0 0 0 3 1.3 9 9 0 0 0 1.31-.1 18.7 18.7 0 0 0 6.5-2.52 18.6 18.6 0 0 0 5.3-4.53c1.34-1.73 1.7-3.29 1.04-4.39"/></svg>
